img/icons-payable-taxes/03.svg

<svg width="50" height="50" viewBox="0 0 50 50" fill="none" xmlns="http://www.w3.org/2000/svg">
<path d="M47.0377 28.0025L42.4798 24.383C42.009 24.0091 41.421 23.8412 40.8232 23.9094C40.2258 23.978 39.6909 24.275 39.317 24.746C38.9431 25.2169 38.7749 25.8052 38.8435 26.4026C38.912 27 39.2091 27.5349 39.68 27.9088L41.2854 29.1837C41.6033 29.436 42.0653 29.3829 42.3177 29.0653C42.5701 28.7475 42.517 28.2854 42.1993 28.0329L40.5939 26.758C40.4304 26.6282 40.3272 26.4425 40.3034 26.2351C40.2796 26.0276 40.338 25.8233 40.4679 25.6598C40.5977 25.4963 40.7834 25.3931 40.9908 25.3694C41.198 25.3457 41.4026 25.404 41.5661 25.5339L46.124 29.1534C47.6458 30.3618 48.5187 32.1695 48.5187 34.1127C48.5187 37.6047 45.6777 40.4457 42.1857 40.4457H39.6023C39.6911 39.9352 39.746 39.4133 39.7652 38.8824H42.1857C44.8156 38.8824 46.9554 36.7428 46.9554 34.1127C46.9554 32.6493 46.298 31.2879 45.1518 30.3776L44.6515 29.9802C44.3337 29.728 43.8717 29.781 43.6192 30.0987C43.3668 30.4165 43.4199 30.8787 43.7376 31.131L44.2379 31.5283C45.031 32.1581 45.4858 33.1 45.4858 34.1126C45.4858 35.9324 44.0054 37.4128 42.1856 37.4128H39.7262C39.4891 34.7696 38.358 32.3064 36.4803 30.3883L32.9918 26.8248C32.9915 26.8245 32.9912 26.8242 32.9909 26.8238L24.3436 17.9905C23.8274 17.4632 23.4454 16.81 23.2391 16.1015L20.5696 6.93436L20.5694 6.16701C20.5688 4.23683 19.7545 2.37964 18.3352 1.07182C17.5864 0.381765 16.6132 0.00156742 15.5951 0.00127353L10.9707 0C10.9703 0 10.97 0 10.9696 0C9.88764 0 8.87048 0.421342 8.10548 1.18634L4.89609 4.39573H2.40977C1.08746 4.39573 0.0117188 5.47147 0.0117188 6.79378V7.77822C0.0117188 8.32819 0.202944 8.86591 0.550225 9.29245L2.06935 11.1581C3.10208 12.4262 4.63228 13.1536 6.26778 13.1536H8.10989V15.5604C7.55777 15.0702 6.83186 14.7719 6.03727 14.7719C4.31331 14.7719 2.91066 16.1744 2.91066 17.8985C2.91066 19.6225 4.31321 21.0251 6.03727 21.0251C6.83186 21.0251 7.55777 20.7266 8.10989 20.2366V20.7638L6.26739 26.2394C6.24202 26.3149 6.22899 26.3941 6.22899 26.4737V37.5322C6.22899 37.9379 6.55795 38.2669 6.96372 38.2669C7.36948 38.2669 7.69844 37.9379 7.69844 37.5322V36.2526H8.01967C10.5799 36.2526 12.6629 34.1697 12.6629 31.6094C12.6629 29.0491 10.5799 26.966 8.01976 26.966H7.69854V26.5937L8.61391 23.8733C8.88762 23.9229 9.16594 23.9499 9.44602 23.9499C12.0038 23.9499 14.0846 21.869 14.0846 19.3113C14.0846 19.27 14.0835 19.2285 14.0824 19.1871C16.8071 18.6827 19.4101 17.5749 21.6625 15.9429L21.8283 16.5124C21.9656 16.9836 22.1615 17.4364 22.4089 17.8589L20.0701 20.8668C18.5771 22.7869 18.7482 25.5317 20.468 27.2515C21.613 28.3965 23.2446 28.8906 24.8324 28.5737L25.3542 28.4694L26.8808 29.2091C27.5445 29.5307 28.2639 29.6882 28.9807 29.6882C30.0528 29.6882 31.1194 29.3355 31.9848 28.6516L32.4017 28.3224L35.4303 31.4162C37.2837 33.3094 38.3044 35.8111 38.3044 38.4606C38.3044 44.0131 33.7871 48.5304 28.2345 48.5304H19.1237V46.6802C19.1237 46.0548 19.6325 45.5459 20.258 45.5459H27.2563C27.6621 45.5459 27.991 45.2169 27.991 44.8112C27.991 44.4054 27.6621 44.0764 27.2563 44.0764H24.1622L23.842 43.7721C21.9027 41.9286 21.7962 38.8245 23.6047 36.8525C25.4242 34.8685 28.4436 34.6947 30.4788 36.4564L31.9837 37.7591C32.2905 38.0247 32.7545 37.9913 33.02 37.6845C33.2856 37.3777 33.2522 36.9137 32.9454 36.6481L31.4405 35.3454C30.1723 34.2474 28.5514 33.6957 26.8769 33.7925C25.2022 33.889 23.6556 34.623 22.5217 35.8592C21.7222 36.7309 21.1909 37.7844 20.963 38.9171C19.2465 38.8237 17.6237 38.1381 16.3567 36.9607L15.5322 36.1947C15.2425 35.9256 14.792 35.9338 14.5125 36.2134L11.568 39.1579C11.1655 39.5604 10.9438 40.0956 10.9438 40.6648V46.7573C10.9438 46.9863 10.8438 47.2029 10.6692 47.3514L9.2833 48.5303H8.42896H4.80479C4.75267 48.5303 4.71026 48.4879 4.71026 48.4358V48.2622C4.71026 47.711 4.91333 47.1817 5.28217 46.7719L7.50986 44.2967C7.63124 44.1618 7.69844 43.9867 7.69844 43.8052V40.663C7.69844 40.2572 7.36948 39.9283 6.96372 39.9283C6.55795 39.9283 6.22899 40.2572 6.22899 40.663V43.5232L4.18987 45.7889C3.57779 46.4689 3.2408 47.3473 3.2408 48.2623V48.4359C3.2408 49.2983 3.94242 49.9999 4.80479 49.9999H8.42896H9.54741H13.4251C14.1561 49.9999 14.8435 49.7152 15.3604 49.1983C16.1243 48.4343 16.3674 47.2892 15.9797 46.2808L15.4342 44.862V38.1063C16.9321 39.4659 18.8306 40.2621 20.8394 40.3811C20.8397 40.3911 20.8394 40.4011 20.8397 40.4112C20.8858 41.7565 21.3445 43.0266 22.1477 44.0765H20.2579C18.8221 44.0765 17.6541 45.2445 17.6541 46.6803V48.6632C17.6541 49.4003 18.2537 50 18.9909 50H28.2344C33.3943 50 37.7738 46.5957 39.2454 41.9152H42.1857C46.488 41.9152 49.9881 38.415 49.9881 34.1127C49.988 31.7185 48.9127 29.4914 47.0377 28.0025ZM6.03717 19.5554C5.12347 19.5554 4.38002 18.8121 4.38002 17.8983C4.38002 16.9845 5.12337 16.2411 6.03717 16.2411C6.95098 16.2411 7.69423 16.9845 7.69423 17.8983C7.69423 18.8121 6.95098 19.5554 6.03717 19.5554ZM6.26778 11.684C5.07615 11.684 3.96122 11.1541 3.20886 10.2301L1.68974 8.36444C1.55524 8.19927 1.48117 7.9911 1.48117 7.77812V6.79378C1.48117 6.28173 1.89772 5.86519 2.40977 5.86519H5.20047C5.39532 5.86519 5.58223 5.7878 5.71997 5.64996L9.14458 2.22534C9.63205 1.73788 10.2801 1.46946 10.9696 1.46946H10.9702L11.8117 1.46975V3.63602C11.8117 4.04179 12.1407 4.37075 12.5465 4.37075C12.9522 4.37075 13.2812 4.04179 13.2812 3.63602V1.47014L15.5946 1.47083C16.2429 1.47093 16.8626 1.71309 17.3394 2.15246C18.3505 3.08419 18.9701 4.36997 19.0804 5.73205L14.8169 8.75561C14.5124 8.96711 14.1345 8.99052 13.8059 8.81879C13.4774 8.64697 13.2813 8.3229 13.2813 7.95221V6.76714C13.2813 6.36137 12.9523 6.03241 12.5466 6.03241C12.1408 6.03241 11.8118 6.36137 11.8118 6.76714V7.9523C11.8118 8.86621 12.3149 9.69723 13.1247 10.1208C13.4821 10.3078 13.8706 10.4005 14.2584 10.4005C14.7489 10.4005 15.2381 10.2521 15.6608 9.9586L19.1908 7.45524L20.1079 10.6048L19.8317 10.8198C16.9094 13.0955 13.2797 14.3759 9.57925 14.443V12.4187C9.57925 12.0129 9.25029 11.6839 8.84452 11.6839H6.26778V11.684ZM8.01976 28.4354C9.76979 28.4354 11.1935 29.8591 11.1935 31.6092C11.1935 33.3592 9.76979 34.7829 8.01976 34.7829H7.69854V28.4354H8.01976ZM9.44592 22.4805C9.3265 22.4805 9.20767 22.4725 9.08972 22.4593L9.54095 21.1182C9.56632 21.0427 9.57935 20.9636 9.57935 20.8839V19.4986H10.7092C11.3461 19.4986 11.9816 19.4651 12.6129 19.3997C12.5659 21.1063 11.1638 22.4805 9.44592 22.4805ZM10.7092 18.0291H9.57935V15.9125C13.5276 15.8465 17.4026 14.5073 20.5493 12.1205L21.2238 14.4366C18.2282 16.7534 14.4966 18.0291 10.7092 18.0291ZM31.0738 27.4988C30.0686 28.2931 28.6742 28.4452 27.5214 27.8867L25.7727 27.0396C25.6285 26.9697 25.4655 26.9488 25.3084 26.9803L24.5445 27.1328C23.4391 27.3534 22.3038 27.0095 21.5069 26.2126C20.3099 25.0156 20.1909 23.1053 21.23 21.7689L23.3353 19.0614L31.3678 27.2665L31.0738 27.4988ZM14.3213 48.1594C14.082 48.3987 13.7637 48.5305 13.4251 48.5305H11.5511L11.6213 48.4708C12.1245 48.0427 12.4131 47.4183 12.4131 46.7575V40.665C12.4131 40.4883 12.482 40.3222 12.607 40.1972L13.9647 38.8395V44.9986C13.9647 45.0887 13.9812 45.1781 14.0137 45.2622L14.6081 46.8083C14.7877 47.2752 14.6751 47.8055 14.3213 48.1594Z" fill="#007A65"/>
</svg>

<svg width="50" height="50" fill="none" xmlns="http://www.w3.org/2000/svg"><path d="M47.038 28.003l-4.558-3.62a2.238 2.238 0 00-1.657-.474 2.236 2.236 0 00-1.506.837 2.236 2.236 0 00-.474 1.657c.069.597.366 1.132.837 1.506l1.605 1.275a.735.735 0 00.914-1.151l-1.605-1.275a.776.776 0 01-.29-.523.776.776 0 01.164-.575.776.776 0 01.523-.29.777.777 0 01.575.164l4.558 3.62a6.3 6.3 0 012.395 4.959 6.34 6.34 0 01-6.333 6.333h-2.584c.09-.51.144-1.033.163-1.564h2.42c2.63 0 4.77-2.14 4.77-4.77a4.745 4.745 0 00-1.803-3.734l-.5-.398a.735.735 0 00-.914 1.151l.5.397a3.282 3.282 0 011.248 2.585c0 1.82-1.48 3.3-3.3 3.3h-2.46a11.466 11.466 0 00-3.246-7.025l-3.488-3.563-.001-.001-8.647-8.834a4.513 4.513 0 01-1.105-1.888l-2.67-9.168v-.767a6.95 6.95 0 00-2.234-5.095 4.035 4.035 0 00-2.74-1.07L10.971 0h-.001c-1.082 0-2.1.421-2.865 1.186l-3.209 3.21H2.41A2.4 2.4 0 00.012 6.794v.984c0 .55.19 1.088.538 1.514l1.52 1.866a5.393 5.393 0 004.198 1.996H8.11v2.406a3.112 3.112 0 00-2.073-.788 3.13 3.13 0 00-3.126 3.126 3.13 3.13 0 003.126 3.127c.795 0 1.52-.298 2.073-.788v.527l-1.843 5.475a.736.736 0 00-.038.235v11.058a.735.735 0 001.47 0v-1.28h.32a4.648 4.648 0 004.644-4.643 4.649 4.649 0 00-4.643-4.643h-.321v-.372l.915-2.72a4.644 4.644 0 005.468-4.686 18.766 18.766 0 007.58-3.245l.166.57c.138.47.334.923.58 1.346l-2.338 3.008a4.841 4.841 0 00.398 6.384 4.825 4.825 0 004.364 1.323l.522-.105 1.527.74c.663.322 1.383.48 2.1.48a4.849 4.849 0 003.004-1.037l.417-.33 3.028 3.094a10.014 10.014 0 012.874 7.045c0 5.552-4.517 10.07-10.07 10.07h-9.11v-1.85c0-.626.509-1.135 1.134-1.135h6.998a.735.735 0 000-1.47h-3.094l-.32-.304c-1.94-1.843-2.046-4.947-.237-6.92a4.916 4.916 0 016.874-.396l1.505 1.303a.735.735 0 10.961-1.11l-1.505-1.304a6.375 6.375 0 00-4.563-1.553 6.377 6.377 0 00-4.355 2.067 6.372 6.372 0 00-1.559 3.058 7.334 7.334 0 01-4.606-1.956l-.825-.766a.735.735 0 00-1.02.018l-2.944 2.945a2.117 2.117 0 00-.624 1.507v6.092c0 .23-.1.446-.275.594l-1.386 1.18H4.805a.095.095 0 01-.095-.095v-.174c0-.551.203-1.08.572-1.49l2.228-2.475a.735.735 0 00.188-.492v-3.142a.735.735 0 10-1.469 0v2.86l-2.04 2.266a3.691 3.691 0 00-.948 2.473v.174c0 .862.701 1.564 1.564 1.564h8.62a2.74 2.74 0 002.555-3.72l-.546-1.418v-6.756a8.796 8.796 0 005.405 2.275v.03a6.367 6.367 0 001.309 3.666h-1.89a2.607 2.607 0 00-2.604 2.603v1.983c0 .737.6 1.337 1.337 1.337h9.243c5.16 0 9.54-3.404 11.011-8.085h2.94c4.303 0 7.803-3.5 7.803-7.802a7.761 7.761 0 00-2.95-6.11zm-41-8.448a1.659 1.659 0 01-1.658-1.657c0-.913.743-1.657 1.657-1.657s1.657.744 1.657 1.657c0 .914-.743 1.657-1.657 1.657zm.23-7.871a3.93 3.93 0 01-3.06-1.454L1.69 8.364a.931.931 0 01-.209-.586v-.984a.93.93 0 01.929-.929H5.2a.734.734 0 00.52-.215l3.425-3.425a2.564 2.564 0 011.825-.756h.842v2.167a.735.735 0 001.47 0V1.47h2.313c.648 0 1.268.243 1.744.682a5.478 5.478 0 011.741 3.58l-4.263 3.024a.963.963 0 01-1.011.063.963.963 0 01-.525-.867V6.767a.735.735 0 00-1.47 0v1.185a2.44 2.44 0 001.314 2.169 2.442 2.442 0 002.536-.162l3.53-2.504.917 3.15-.276.215a17.27 17.27 0 01-10.253 3.623v-2.024a.735.735 0 00-.734-.735H6.268zM8.02 28.435a3.177 3.177 0 013.174 3.174 3.177 3.177 0 01-3.174 3.174h-.321v-6.348h.32zm1.426-5.954a3.24 3.24 0 01-.356-.022l.451-1.34a.736.736 0 00.038-.235v-1.385h1.13c.637 0 1.273-.034 1.904-.1a3.172 3.172 0 01-3.167 3.081zm1.263-4.452H9.58v-2.117a18.75 18.75 0 0010.97-3.792l.675 2.317a17.268 17.268 0 01-10.515 3.592zm20.365 9.47a3.383 3.383 0 01-3.553.388l-1.748-.847a.734.734 0 00-.465-.06l-.764.153a3.358 3.358 0 01-3.037-.92 3.37 3.37 0 01-.277-4.444l2.105-2.708 8.033 8.206-.294.232zM14.32 48.159a1.26 1.26 0 01-.896.372H11.55l.07-.06a2.246 2.246 0 00.792-1.713v-6.093c0-.177.069-.343.194-.468l1.358-1.358V45c0 .09.016.18.049.263l.594 1.546c.18.467.067.998-.287 1.351z" fill="#007A65"/></svg>
